X: 1
T: The Skylark's Ascension
C: Archie Lindsay (of South Uist)
B: from Kenneth & Angus MacKenzie "Piob is Fidheall"
A: arr. T. Traub 8-7-2014
R: Jig
M: 6/8
K: A
L: 1/8
f |\
"A"aaa faa | "A"fee "E"c2 B | "A"AAA A2 B | "A"cee e2 c |\
"F#m"f3 fec | "A"eff c2 B | "D"Aaa fec | "E"e3 e2 :|
|: f |\
"F#m"a3 afe | fff f2 e | c3 cff | "A"ecB c3 |\
"D"a3 afe | "D"fff f2 e | "A"Aaa fec | "E"e3 e2 :|
|: a |\
"A"AAA AAc | "E"ecB "A"c3 | "D"fff f2 e | "D"cfe "E"c2 B |\
"A"AAA AAB | "F#m"cee c2 B | "D"Aaa fec | "E"e3 e2 :|
f |\
"A"aAa "D"fdf | "A"eAa c3 | "D"dff "A"cee | "A"Acc "E"B2 e |\
"A"aAa "D"fdf | "A"eAa c2 B | "D"Aaa fec | "E"e3 e2 ||
f |\
"A"aAa "D"fdf | "A"eAa c3 | "D"dff "A"cee | "A"Acc "E"B2 e |\
"A"a2 f ecB | "F#m"cfe c2 B | "D"Aaa fec | "E"e3 e2 |]
